X:63
T:Mrs Casey. JGi.063
O:Tealby,Lincolnshire
M:6/8
L:1/8
Q:3/8=100
S:Joshua Gibbons MS,1823,Tealby,Lincs.
R:jig
Z:VMP/R.Greig, 2009
K:D
f/e/|d2B BcB|A2A ABA|B2B BcB|(g3f2)e|
d2B BcB|A2A ABA|B2B BcB|(d3f2):|
|:e|d2ef2g|a2ba2f|d2ef2g|(a3a2) a|
b2ga2f|g2ef2e|d2B BcB|”Da Capo”g3f2|]

